X: 53
T:Proudlocks's Hornpipe
% Nottingham Music Database
S:NPTB
M:4/4
L:1/8
R:Hornpipe
K:G
D2|"G"GDGB "D7"AGAB|"G"G2gf "C"gedc|"G"B2/3c2/3d2/3 BG "D7"A2/3B2/3c2/3AF|"G"GFGA "D7"GFED|
"G"GDGB "D7"AGAB|"G"G2gf "C"gedc|"G"B2/3c2/3d2/3 BG "D7"A2/3B2/3c2/3AF|"G"G2G2 G2:|:
Bc|"G"dedc "Em"B2 G2/3A2/3B2/3|"Am"cdcB "D7"A2Bc|"G"dedc "Em"B2g2|"A7"agfe "D7"dcBA|
"G"GDGB "D7"AGAB|"G"G2gf "C"gedc|"G"B2/3c2/3d2/3BG "D7"A2/3B2/3c2/3AF|"G"G2G2 G2:|





